app/dist/common/images/enact.svg

<svg height="18" viewBox="0 0 18 18" width="18" xmlns="http://www.w3.org/2000/svg"><path d="m0 0h18v18h-18z" fill="#00d874"/><g fill="#fff"><path d="m7 10v3h2v-3h3v-2h-3v-3h-2v3h-3v2z"/><path d="m10 5h3l-.46 2h-2.54zm0 6h3l-.46 2h-2.54z"/></g></svg>

<!-- by TradingView --><svg width="18" height="18" viewBox="0 0 18 18" xmlns="http://www.w3.org/2000/svg"><path fill="#00D874" d="M0 0h18v18H0z"/><path d="M7 10v3h2v-3h3V8H9V5H7v3H4v2h3Z" fill="#fff"/><path d="M10 5h3l-.46 2H10V5ZM10 11h3l-.46 2H10v-2Z" fill="#fff"/></svg>
